imgs/google-play.svg

<svg width="194" height="56" viewBox="0 0 194 56" fill="none" xmlns="http://www.w3.org/2000/svg">
<g clip-path="url(#clip0_513_1359)">
<path d="M186.744 56H7.61951C3.60712 56 0.454529 52.78 0.454529 49V7.00005C0.454529 3.08005 3.75042 4.57764e-05 7.61951 4.57764e-05H186.744C190.756 4.57764e-05 193.909 3.22005 193.909 7.00005V49C193.909 52.92 190.613 56 186.744 56Z" fill="#242427"/>
<path d="M66.7888 14.2444C66.7888 15.3616 66.5095 16.3392 65.8112 17.0374C64.9733 17.8753 63.9958 18.2943 62.7389 18.2943C61.482 18.2943 60.5045 17.8753 59.6666 17.0374C58.8287 16.1995 58.4097 15.222 58.4097 13.9651C58.4097 12.7082 58.8287 11.7307 59.6666 10.8928C60.5045 10.0549 61.482 9.63591 62.7389 9.63591C63.2975 9.63591 63.8561 9.77556 64.4147 10.0549C64.9733 10.3342 65.3923 10.6135 65.6716 11.0324L64.9733 11.7307C64.4147 11.0324 63.7165 10.7531 62.7389 10.7531C61.901 10.7531 61.0631 11.0324 60.5045 11.7307C59.8062 12.2893 59.5269 13.1272 59.5269 14.1047C59.5269 15.0823 59.8062 15.9202 60.5045 16.4788C61.2027 17.0374 61.901 17.4564 62.7389 17.4564C63.7165 17.4564 64.4147 17.1771 65.113 16.4788C65.5319 16.0599 65.8112 15.5013 65.8112 14.803H62.7389V13.6858H66.7888C66.7888 13.8254 66.7888 14.1047 66.7888 14.2444Z" fill="white" stroke="white" stroke-width="0.279302" stroke-miterlimit="10"/>
<path d="M73.2133 10.7533H69.4428V13.4067H72.934V14.3842H69.4428V17.0376H73.2133V18.1548H68.3256V9.77574H73.2133V10.7533Z" fill="white" stroke="white" stroke-width="0.279302" stroke-miterlimit="10"/>
<path d="M77.6821 18.1548H76.5649V10.7533H74.1908V9.77574H80.0561V10.7533H77.6821V18.1548Z" fill="white" stroke="white" stroke-width="0.279302" stroke-miterlimit="10"/>
<path d="M84.2446 18.1548V9.77574H85.3618V18.1548H84.2446Z" fill="white" stroke="white" stroke-width="0.279302" stroke-miterlimit="10"/>
<path d="M90.1111 18.1548H88.9939V10.7533H86.6198V9.77574H92.3455V10.7533H89.9714V18.1548H90.1111Z" fill="white" stroke="white" stroke-width="0.279302" stroke-miterlimit="10"/>
<path d="M103.378 17.0374C102.54 17.8753 101.562 18.2943 100.305 18.2943C99.0486 18.2943 98.0711 17.8753 97.2332 17.0374C96.3953 16.1995 95.9763 15.222 95.9763 13.9651C95.9763 12.7082 96.3953 11.7307 97.2332 10.8928C98.0711 10.0549 99.0486 9.63592 100.305 9.63592C101.562 9.63592 102.54 10.0549 103.378 10.8928C104.216 11.7307 104.635 12.7082 104.635 13.9651C104.495 15.222 104.216 16.1995 103.378 17.0374ZM97.9314 16.3392C98.49 16.8978 99.3279 17.3167 100.166 17.3167C101.004 17.3167 101.842 17.0374 102.4 16.3392C102.959 15.7806 103.378 14.9427 103.378 13.9651C103.378 12.9875 103.099 12.1496 102.4 11.591C101.842 11.0324 101.004 10.6135 100.166 10.6135C99.3279 10.6135 98.49 10.8928 97.9314 11.591C97.3728 12.1496 96.9539 12.9875 96.9539 13.9651C97.0935 14.9427 97.3728 15.7806 97.9314 16.3392Z" fill="white" stroke="white" stroke-width="0.279302" stroke-miterlimit="10"/>
<path d="M106.031 18.1548V9.77574H107.288L111.338 16.3393V14.6635V9.77574H112.455V18.1548H111.338L107.009 11.3119V12.9877V18.1548H106.031Z" fill="white" stroke="white" stroke-width="0.279302" stroke-miterlimit="10"/>
<path d="M95.6966 30.4439C92.3449 30.4439 89.6916 32.9577 89.6916 36.4489C89.6916 39.8006 92.3449 42.4539 95.6966 42.4539C99.0482 42.4539 101.702 39.9402 101.702 36.4489C101.702 32.818 98.9085 30.4439 95.6966 30.4439ZM95.6966 39.9402C93.8811 39.9402 92.3449 38.404 92.3449 36.3093C92.3449 34.2145 93.8811 32.6784 95.6966 32.6784C97.512 32.6784 99.0482 34.0749 99.0482 36.3093C99.0482 38.404 97.512 39.9402 95.6966 39.9402ZM82.709 30.4439C79.3574 30.4439 76.704 32.9577 76.704 36.4489C76.704 39.8006 79.3574 42.4539 82.709 42.4539C86.0606 42.4539 88.714 39.9402 88.714 36.4489C88.5744 32.818 85.921 30.4439 82.709 30.4439ZM82.709 39.9402C80.8936 39.9402 79.3574 38.404 79.3574 36.3093C79.3574 34.2145 80.8936 32.6784 82.709 32.6784C84.5245 32.6784 86.0606 34.0749 86.0606 36.3093C86.0606 38.404 84.5245 39.9402 82.709 39.9402ZM67.2077 32.2594V34.7731H73.2127C73.0731 36.1696 72.5145 37.2868 71.8162 37.9851C70.9783 38.823 69.5818 39.8006 67.2077 39.8006C63.4372 39.8006 60.6441 36.8679 60.6441 33.0973C60.6441 29.3267 63.5768 26.3941 67.2077 26.3941C69.1629 26.3941 70.699 27.232 71.8162 28.2095L73.6317 26.3941C72.0955 24.9975 70.1404 23.8803 67.3474 23.8803C62.32 23.8803 57.9908 28.0699 57.9908 33.0973C57.9908 38.1247 62.32 42.3143 67.3474 42.3143C70.1404 42.3143 72.0955 41.4764 73.7713 39.6609C75.4472 37.9851 76.0058 35.611 76.0058 33.7956C76.0058 33.237 76.0058 32.6784 75.8661 32.2594H67.2077ZM130.47 34.2145C129.911 32.818 128.515 30.4439 125.442 30.4439C122.37 30.4439 119.856 32.818 119.856 36.4489C119.856 39.8006 122.37 42.4539 125.722 42.4539C128.375 42.4539 130.051 40.7781 130.609 39.8006L128.654 38.404C127.956 39.3816 127.118 40.0799 125.722 40.0799C124.325 40.0799 123.487 39.5213 122.789 38.2644L130.749 34.9128L130.47 34.2145ZM122.37 36.1696C122.37 33.9352 124.185 32.6784 125.442 32.6784C126.42 32.6784 127.397 33.237 127.677 33.9352L122.37 36.1696ZM115.946 41.8953H118.599V24.4389H115.946V41.8953ZM111.617 31.7008C110.919 31.0025 109.801 30.3043 108.405 30.3043C105.472 30.3043 102.679 32.9577 102.679 36.3093C102.679 39.6609 105.332 42.1746 108.405 42.1746C109.801 42.1746 110.919 41.4764 111.477 40.7781H111.617V41.616C111.617 43.8504 110.36 45.1073 108.405 45.1073C106.869 45.1073 105.751 43.9901 105.472 43.0125L103.238 43.9901C103.936 45.5262 105.612 47.4814 108.544 47.4814C111.617 47.4814 114.13 45.6659 114.13 41.3367V30.7232H111.617V31.7008ZM108.684 39.9402C106.869 39.9402 105.332 38.404 105.332 36.3093C105.332 34.2145 106.869 32.6784 108.684 32.6784C110.5 32.6784 111.896 34.2145 111.896 36.3093C111.756 38.404 110.5 39.9402 108.684 39.9402ZM142.759 24.4389H136.475V41.8953H139.128V35.3317H142.759C145.692 35.3317 148.485 33.237 148.485 29.8853C148.485 26.5337 145.552 24.4389 142.759 24.4389ZM142.759 32.818H138.988V26.813H142.759C144.714 26.813 145.831 28.4888 145.831 29.7457C145.831 31.2818 144.714 32.818 142.759 32.818ZM158.819 30.3043C156.864 30.3043 154.909 31.1422 154.21 32.9577L156.584 33.9352C157.143 32.9577 157.981 32.6784 158.958 32.6784C160.355 32.6784 161.612 33.5163 161.751 34.9128V35.0524C161.333 34.7731 160.215 34.3542 159.098 34.3542C156.584 34.3542 154.071 35.7507 154.071 38.2644C154.071 40.6385 156.165 42.1746 158.4 42.1746C160.215 42.1746 161.053 41.3367 161.751 40.4988H161.891V41.8953H164.405V35.1921C164.126 32.1198 161.891 30.3043 158.819 30.3043ZM158.54 39.9402C157.702 39.9402 156.445 39.5213 156.445 38.404C156.445 37.0075 157.981 36.5886 159.238 36.5886C160.355 36.5886 160.914 36.8679 161.612 37.1472C161.472 38.823 160.076 39.9402 158.54 39.9402ZM173.343 30.7232L170.41 38.2644H170.27L167.198 30.7232H164.405L169.013 41.3367L166.36 47.2021H169.013L176.136 30.7232H173.343ZM149.881 41.8953H152.535V24.4389H149.881V41.8953Z" fill="white"/>
<path d="M15.1179 10.4738C14.6989 10.8928 14.4196 11.591 14.4196 12.429V43.2918C14.4196 44.1297 14.6989 44.828 15.1179 45.2469L15.2576 45.3866L32.5743 28.0699V27.9302V27.7906L15.1179 10.4738Z" fill="url(#paint0_linear_513_1359)"/>
<path d="M38.3003 33.9349L32.5746 28.0696V27.9299V27.7903L38.3003 22.0646L38.44 22.2042L45.2829 26.1145C47.238 27.2317 47.238 29.0471 45.2829 30.1643L38.3003 33.9349Z" fill="url(#paint1_linear_513_1359)"/>
<path d="M38.4396 33.7956L32.5743 27.9302L15.1179 45.3866C15.8161 46.0848 16.7937 46.0848 18.0506 45.5262L38.4396 33.7956Z" fill="url(#paint2_linear_513_1359)"/>
<path d="M38.4396 22.0649L18.0506 10.4738C16.7937 9.77557 15.8161 9.91522 15.1179 10.6135L32.5743 27.9302L38.4396 22.0649Z" fill="url(#paint3_linear_513_1359)"/>
<path opacity="0.2" d="M38.3 33.6559L18.0506 45.1073C16.9334 45.8055 15.9558 45.6659 15.2575 45.1073L15.1179 45.2469L15.2575 45.3866C15.9558 45.9452 16.9334 46.0848 18.0506 45.3866L38.3 33.6559Z" fill="#242427"/>
<path opacity="0.12" d="M15.1179 45.1073C14.6989 44.6883 14.4196 43.9901 14.4196 43.1522V43.2918C14.4196 44.1297 14.6989 44.828 15.1179 45.2469V45.1073Z" fill="#242427"/>
<path opacity="0.12" d="M45.282 29.7459L38.2994 33.6561L38.4391 33.7958L45.282 29.8855C46.2595 29.3269 46.6785 28.6287 46.6785 27.9304C46.6785 28.6287 46.1199 29.1873 45.282 29.7459Z" fill="#242427"/>
<path opacity="0.25" d="M18.0506 10.6135L45.2825 26.1147C46.1204 26.6733 46.679 27.2319 46.679 27.9302C46.679 27.2319 46.2601 26.5337 45.2825 25.9751L18.0506 10.4738C16.0955 9.35661 14.4196 10.1945 14.4196 12.4289V12.5686C14.4196 10.4738 16.0955 9.49626 18.0506 10.6135Z" fill="white"/>
</g>
<defs>
<linearGradient id="paint0_linear_513_1359" x1="30.9716" y1="12.1639" x2="7.53485" y2="35.6007" gradientUnits="userSpaceOnUse">
<stop stop-color="#00A0FF"/>
<stop offset="0.00657445" stop-color="#00A1FF"/>
<stop offset="0.2601" stop-color="#00BEFF"/>
<stop offset="0.5122" stop-color="#00D2FF"/>
<stop offset="0.7604" stop-color="#00DFFF"/>
<stop offset="1" stop-color="#00E3FF"/>
</linearGradient>
<linearGradient id="paint1_linear_513_1359" x1="47.7785" y1="27.9326" x2="13.9872" y2="27.9326" gradientUnits="userSpaceOnUse">
<stop stop-color="#FFE000"/>
<stop offset="0.4087" stop-color="#FFBD00"/>
<stop offset="0.7754" stop-color="#FFA500"/>
<stop offset="1" stop-color="#FF9C00"/>
</linearGradient>
<linearGradient id="paint2_linear_513_1359" x1="35.1991" y1="31.1374" x2="3.41695" y2="62.9196" gradientUnits="userSpaceOnUse">
<stop stop-color="#FF3A44"/>
<stop offset="1" stop-color="#C31162"/>
</linearGradient>
<linearGradient id="paint3_linear_513_1359" x1="10.7189" y1="0.246759" x2="24.9109" y2="14.4388" gradientUnits="userSpaceOnUse">
<stop stop-color="#32A071"/>
<stop offset="0.0685" stop-color="#2DA771"/>
<stop offset="0.4762" stop-color="#15CF74"/>
<stop offset="0.8009" stop-color="#06E775"/>
<stop offset="1" stop-color="#00F076"/>
</linearGradient>
<clipPath id="clip0_513_1359">
<rect width="193.455" height="56" fill="white" transform="translate(0.454529)"/>
</clipPath>
</defs>
</svg>

<svg xmlns="http://www.w3.org/2000/svg" width="194" height="56" fill="none" xmlns:v="https://vecta.io/nano"><g clip-path="url(#E)"><path d="M186.744 56H7.62C3.607 56 .455 52.78.455 49V7c0-3.92 3.296-7 7.165-7h179.124c4.012 0 7.165 3.22 7.165 7v42c0 3.92-3.296 7-7.165 7z" fill="#242427"/><g fill="#fff"><g stroke="#fff" stroke-width=".279" stroke-miterlimit="10"><path d="M66.789 14.244c0 1.117-.279 2.095-.978 2.793-.838.838-1.815 1.257-3.072 1.257s-2.234-.419-3.072-1.257-1.257-1.815-1.257-3.072.419-2.234 1.257-3.072 1.815-1.257 3.072-1.257c.559 0 1.117.14 1.676.419s.978.559 1.257.978l-.698.698c-.559-.698-1.257-.978-2.234-.978-.838 0-1.676.279-2.234.978-.698.559-.978 1.396-.978 2.374s.279 1.816.978 2.374 1.397.978 2.234.978c.978 0 1.676-.279 2.374-.978a2.31 2.31 0 0 0 .698-1.676H62.74v-1.117h4.05v.559zm6.424-3.491h-3.77v2.653h3.491v.977h-3.491v2.653h3.77v1.117h-4.888V9.776h4.888v.978zm4.469 7.402h-1.117v-7.402h-2.374v-.978h5.865v.978h-2.374v7.402zm6.563 0V9.776h1.117v8.379h-1.117zm5.866 0h-1.117v-7.402H86.62v-.978h5.726v.978h-2.374v7.402h.14zm13.267-1.118c-.838.838-1.816 1.257-3.073 1.257s-2.234-.419-3.072-1.257-1.257-1.815-1.257-3.072.419-2.234 1.257-3.072 1.815-1.257 3.072-1.257 2.235.419 3.073 1.257 1.257 1.815 1.257 3.072c-.14 1.257-.419 2.234-1.257 3.072zm-5.447-.698c.559.559 1.397.977 2.235.977s1.676-.279 2.234-.977a3.37 3.37 0 0 0 .978-2.374c0-.978-.279-1.815-.978-2.374-.558-.559-1.396-.977-2.234-.977s-1.676.279-2.235.977a3.37 3.37 0 0 0-.977 2.374c.14.978.419 1.816.977 2.374zm8.1 1.816V9.776h1.257l4.05 6.564v-1.676-4.888h1.117v8.379h-1.117l-4.329-6.843v1.676 5.167h-.978z"/></g><path d="M95.697 30.444c-3.352 0-6.005 2.514-6.005 6.005a5.96 5.96 0 0 0 6.005 6.005c3.352 0 6.005-2.514 6.005-6.005 0-3.631-2.793-6.005-6.005-6.005zm0 9.496c-1.815 0-3.352-1.536-3.352-3.631s1.536-3.631 3.352-3.631 3.352 1.396 3.352 3.631c0 2.095-1.536 3.631-3.352 3.631zm-12.988-9.496c-3.352 0-6.005 2.514-6.005 6.005a5.96 5.96 0 0 0 6.005 6.005c3.352 0 6.005-2.514 6.005-6.005-.14-3.631-2.793-6.005-6.005-6.005zm0 9.496c-1.815 0-3.352-1.536-3.352-3.631s1.536-3.631 3.352-3.631 3.352 1.396 3.352 3.631c0 2.095-1.536 3.631-3.352 3.631zm-15.501-7.681v2.514h6.005c-.14 1.397-.698 2.514-1.397 3.212-.838.838-2.234 1.816-4.608 1.816-3.771 0-6.564-2.933-6.564-6.703s2.933-6.703 6.564-6.703c1.955 0 3.491.838 4.608 1.815l1.816-1.815c-1.536-1.397-3.491-2.514-6.284-2.514-5.027 0-9.357 4.19-9.357 9.217s4.329 9.217 9.357 9.217c2.793 0 4.748-.838 6.424-2.653 1.676-1.676 2.234-4.05 2.234-5.865 0-.559 0-1.117-.14-1.536h-8.658zm63.262 1.955c-.559-1.397-1.955-3.771-5.028-3.771s-5.586 2.374-5.586 6.005c0 3.352 2.514 6.005 5.866 6.005 2.653 0 4.329-1.676 4.887-2.653l-1.955-1.397c-.698.978-1.536 1.676-2.932 1.676s-2.235-.559-2.933-1.815l7.96-3.352-.279-.698zm-8.1 1.955c0-2.234 1.815-3.491 3.072-3.491.978 0 1.955.559 2.235 1.257l-5.307 2.234zm-6.424 5.726h2.653V24.439h-2.653v17.456zm-4.329-10.194c-.698-.698-1.816-1.396-3.212-1.396-2.933 0-5.726 2.653-5.726 6.005s2.653 5.865 5.726 5.865c1.396 0 2.514-.698 3.072-1.396h.14v.838c0 2.234-1.257 3.491-3.212 3.491-1.536 0-2.654-1.117-2.933-2.095l-2.234.978c.698 1.536 2.374 3.491 5.306 3.491 3.073 0 5.586-1.815 5.586-6.145V30.723h-2.513v.978zm-2.933 8.239c-1.815 0-3.352-1.536-3.352-3.631s1.537-3.631 3.352-3.631 3.212 1.536 3.212 3.631c-.14 2.095-1.396 3.631-3.212 3.631zm34.075-15.501h-6.284v17.456h2.653v-6.564h3.631c2.933 0 5.726-2.095 5.726-5.446s-2.933-5.446-5.726-5.446zm0 8.379h-3.771v-6.005h3.771c1.955 0 3.072 1.676 3.072 2.933 0 1.536-1.117 3.072-3.072 3.072zm16.06-2.514c-1.955 0-3.91.838-4.609 2.653l2.374.977c.559-.977 1.397-1.257 2.374-1.257 1.397 0 2.654.838 2.793 2.234v.14c-.418-.279-1.536-.698-2.653-.698-2.514 0-5.027 1.397-5.027 3.91 0 2.374 2.094 3.91 4.329 3.91 1.815 0 2.653-.838 3.351-1.676h.14v1.396h2.514v-6.703c-.279-3.072-2.514-4.888-5.586-4.888zm-.279 9.636c-.838 0-2.095-.419-2.095-1.536 0-1.397 1.536-1.815 2.793-1.815 1.117 0 1.676.279 2.374.559-.14 1.676-1.536 2.793-3.072 2.793zm14.803-9.217l-2.933 7.541h-.14l-3.072-7.541h-2.793l4.608 10.614-2.653 5.865h2.653l7.123-16.479h-2.793zm-23.462 11.172h2.654V24.439h-2.654v17.456z"/></g><path d="M15.118 10.474c-.419.419-.698 1.117-.698 1.955v30.863c0 .838.279 1.536.698 1.955l.14.14L32.574 28.07v-.14-.14L15.118 10.474z" fill="url(#A)"/><path d="M38.3 33.935l-5.726-5.865v-.14-.14l5.726-5.726.14.14 6.843 3.91c1.955 1.117 1.955 2.933 0 4.05L38.3 33.935z" fill="url(#B)"/><path d="M38.44 33.796l-5.865-5.865-17.456 17.456c.698.698 1.676.698 2.933.14L38.44 33.796z" fill="url(#C)"/><path d="M38.44 22.065L18.051 10.474c-1.257-.698-2.234-.559-2.933.14L32.574 27.93l5.865-5.865z" fill="url(#D)"/><g fill="#242427"><path opacity=".2" d="M38.3 33.656L18.051 45.107c-1.117.698-2.095.559-2.793 0l-.14.14.14.14c.698.559 1.676.698 2.793 0L38.3 33.656z"/><path opacity=".12" d="M15.118 45.107c-.419-.419-.698-1.117-.698-1.955v.14c0 .838.279 1.536.698 1.955v-.14zm30.164-15.361l-6.983 3.91.14.14 6.843-3.91c.978-.559 1.397-1.257 1.397-1.955 0 .698-.559 1.257-1.397 1.816z"/></g><path opacity=".25" d="M18.051 10.614l27.232 15.501c.838.559 1.397 1.117 1.397 1.816 0-.698-.419-1.396-1.397-1.955L18.051 10.474c-1.955-1.117-3.631-.279-3.631 1.955v.14c0-2.095 1.676-3.072 3.631-1.955z" fill="#fff"/></g><defs><linearGradient id="A" x1="30.972" y1="12.164" x2="7.535" y2="35.601" href="#F"><stop stop-color="#00a0ff"/><stop offset=".007" stop-color="#00a1ff"/><stop offset=".26" stop-color="#00beff"/><stop offset=".512" stop-color="#00d2ff"/><stop offset=".76" stop-color="#00dfff"/><stop offset="1" stop-color="#00e3ff"/></linearGradient><linearGradient id="B" x1="47.779" y1="27.933" x2="13.987" y2="27.933" href="#F"><stop stop-color="#ffe000"/><stop offset=".409" stop-color="#ffbd00"/><stop offset=".775" stop-color="orange"/><stop offset="1" stop-color="#ff9c00"/></linearGradient><linearGradient id="C" x1="35.199" y1="31.137" x2="3.417" y2="62.92" href="#F"><stop stop-color="#ff3a44"/><stop offset="1" stop-color="#c31162"/></linearGradient><linearGradient id="D" x1="10.719" y1=".247" x2="24.911" y2="14.439" href="#F"><stop stop-color="#32a071"/><stop offset=".069" stop-color="#2da771"/><stop offset=".476" stop-color="#15cf74"/><stop offset=".801" stop-color="#06e775"/><stop offset="1" stop-color="#00f076"/></linearGradient><clipPath id="E"><path fill="#fff" transform="translate(.455)" d="M0 0h193.455v56H0z"/></clipPath><linearGradient id="F" gradientUnits="userSpaceOnUse"/></defs></svg>
